!! 00025] TT[TB
!! Zh. CH. 1-3735, 591487), J 3076)
!!!OTL: Na ni hai xiao shuo
!!!ARE: Asia, China,ÿSichuan, Nanjiang
!! Ethnic Group: Han
!! MM,
!!!SCT: C0916
!!!YEM: Copyright 1995, estate of Helmut Schaffrath.
**kern
*ICvox
*Ivox
!! Mixed meters:  2/4; 3/4
*M3/4
*k[f#c#g#]
*A:
{8eee
8ccc#
8bb
8ccc#
=1
8eee
4ccc#
8ccc#
=2
8bb
16bb
16ccc#
2eee}
=3
*M2/4
{4r
8.r
16ccc#
=4
8.aa
16bb
8ccc#
16aa
16bb
=5
8.aa
16bb
4aa}
=6
{8.aa
16ff#
8aa
8aa
=7
8ff#
16aa
16aa
8aa
8aa
=8
8bb
16aa
16aa
8aa
8aa}
=9
{8ff#
16aa
16aa
8aa
8aa
=10
8bb
16aa
16aa
8aa
8aa}
=11
{8.ee
16ff#
4aa
=12
8bb
4aa
8ff#
=13
8.ee
16ff#
4aa}
=14
{8.ccc#
16bb
8aa
8bb
=15
8ccc#
8ff#
4aa}
=16
{8.ff#
16bb
8aa
8ff#
=17
4ee
8ee
8cc#}
=18
{8.ccc#
16bb
8aa
8bb
=19
4aa
4aa
=20
[2eee
=21
2eee]}
=22
{8.eee
16eee
8ccc#
8bb
=23
8ccc#
4bb
8ccc#}
=24
{4eee
8ccc#
8bb
=25
8aa
16aa
16aa
4bb}
=26
{8ccc#
8aa
8bb
8aa
=27
8eee
4aa
8bb}
=28
{4ccc#
8bb
8aa
=29
8ff#
16ff#
16ff#
4aa}
=30
{8ccc#
8bb
4ccc#
=31
8aa
16aa
16aa
8aa
8r}
=32
*M3/4
{8ccc#
8bb
4eee
8ccc#
8bb
=33
*M2/4
8aa
16aa
16aa
4bb}
=34
{8.ccc#
16bb
8ccc#
8ccc#
=35
8.eee
16ff#
4aa}
=36
{8bb
4aa
8ccc#
=37
8.ee
16ff#
4aa}
=38
{8.ff#
16bb
8ff#
8aa
=39
4ee
8ee
8cc#
=40
8.cc#
16b
8a
8b
=41
4a
4a}
=42
{8ccc#
16ccc#
16bb
8ccc#
8bb
=43
8eee
4ccc#
8aa
=44
*M3/4
8bb
16bb
16ccc#
2eee}
=45
*M2/4
{8.ccc#
16bb
8ccc#
16aa
16bb
=46
8.aa
16bb
8aa}
{8ff#
=47
8.aa
16aa
8aa
8aa
=48
8.aa
16aa
8aa
8aa
=49
8.eee
16ff#
4aa}
=50
{8bb
4aa
8ff#
=51
8.ee
16ff#
4aa}
=52
{8.ccc#
16bb
8aa
8bb
=53
8ccc#
8ff#
4aa}
=54
{8.ff#
16bb
8aa
8ff#
=55
4ee
8ee
8cc#}
=56
{8.ccc#
16bb
8aa
8bb
=57
4aa
8aa
8r}
==
!!!AMT: irregular
!!!AIN: vox
!!!EED: Helmut Schaffrath
!!!EEV: 1.0
*-
!!!ONB: Tied note syntax fixed by Craig Sapp, 2004/05/03/
